app/dist/common/images/fidelity.svg

<svg height="18" width="18" xmlns="http://www.w3.org/2000/svg"><path d="m0 0h18v18h-18z" fill="#092854"/><path d="m4 13h10v-1h-1v-3h-1v3h-1v-3h-1v3h-1v-3h-1v3h-1v-3.143l3.316-3.403 2.684 2.535v-2.989h-2v-1h-3v2h-1v1h-1v-1h-1v5h-1z" fill="#afcdf1"/></svg>

<!-- by TradingView --><svg width="18" height="18" xmlns="http://www.w3.org/2000/svg"><path fill="#092854" d="M0 0h18v18H0z"/><path d="M4 13h10v-1h-1V9h-1v3h-1V9h-1v3H9V9H8v3H7V8.857l3.316-3.403L13 7.989V5h-2V4H8v2H7v1H6V6H5v5H4v2z" fill="#AFCDF1"/></svg>
